X: 16516
T: Haley's
R: jig
M: 6/8
K: Edorian
E3 GE/F/G|BGB e2 f|gfe dBG|F/G/AG FED|
E^DE GFG|B^AB e2 f|g>fe dB^A|Be^d e2:|
|:gGG Gge|dBG G2 f|gfe dB/A/G|F>AG FED|
[1 gBA Gge|dBG A2 f|g>fe dB^A|Be^d e2:|
[2 E^DE GFG|B^AB e2 f|g>fe dBA|GE^D E2||

